logo/fsharp.svg

<?xml version="1.0" encoding="UTF-8" standalone="no"?>
<svg width="256px" height="243px" viewBox="0 0 256 243" version="1.1" xmlns="http://www.w3.org/2000/svg" xmlns:xlink="http://www.w3.org/1999/xlink" preserveAspectRatio="xMidYMid">
	<g>
		<path d="M0,121.491525 L121.491525,0 L121.491525,60.7457627 L60.7457627,121.491525 L121.491525,182.237288 L121.491525,242.983051 L0,121.491525 L0,121.491525 Z" fill="#378BBA"></path>
		<path d="M78.1016949,121.491525 L121.491525,78.1016949 L121.491525,164.881356 L78.1016949,121.491525 L78.1016949,121.491525 Z" fill="#378BBA"></path>
		<path d="M256,121.491525 L130.169492,0 L130.169492,60.7457627 L190.915254,121.491525 L130.169492,182.237288 L130.169492,242.983051 L256,121.491525 L256,121.491525 Z" fill="#30B9DB"></path>
	</g>
</svg>

<svg viewBox="0 0 256 243" xmlns="http://www.w3.org/2000/svg"><g fill="#378BBA"><path d="M0 121.49L121.49-.01v60.74l-60.75 60.74 60.74 60.74v60.74L-.02 121.45v0Z"/><path d="M78.1 121.49l43.38-43.39v86.77l-43.39-43.39v0Z"/></g><path fill="#30B9DB" d="M256 121.49L130.16-.01v60.74l60.74 60.74 -60.75 60.74v60.74l125.83-121.5v0Z"/></svg>
